!!!OTL: Gratanter iubilemus
**kern
*staff1
=1-
*clefF3
*k[b-]
*met(c|)
*M2/2
1F
1F
=2
1F
2F\
2C/
=3
2F\
2G\
2A\
2F\
=4
1G
1D
=5
2G\
2F\
2G\
2C/
=6
1F
1C
=7
!!linebreak:original
2c\
2c\
2c\
2c\
=8
1c
0A
0A
0F
1F
=9
2F\
2C/
2F\
2G\
=10
2A\
2F\
1G
=11
0D
=12
!!linebreak:original
2G\
2F\
2G\
2C/
=13
1F
0C
=14
1c
1A
=15
1c
2F\
2F\
=16
1G
2F\
2G\
=17
2A\
2G\
2F\
2C/
=18
!!linebreak:original
1c
1A
=19
1c
2F\
2F\
=20
1G
2F\
2G\
=21
2A\
2G\
2F\
2C/
=22
2F\
2C/
1F
!!linebreak:original
=23
1F
1F
=24
2F\
2E/
2F\
2C/
=25
2F\
2G\
2A\
2F\
=26
1G
0D
=27
!!pagebreak:original
2C/
2D/
2E/
2F\
2G\
2F\
=28
2G\
2C/
1F
=29
1C
1c
=30
1A
2G\
2F\
=31
2G\
2C/
1F
=32
1C
0F
==
*-
!!title: @{OTL}, @{GTL}, ed. @{ENC}
!!!pag:
!!!GTL: Hymnbook D
!!!EFL: 
!!!YEM: Creative Commons CC/BY/NC/SA 4.0
!!!ENC: Marcin Konik
!!!END: 2015-0m-dd
!!!EED: Marcin Konik
!!!EEV: 
!!!ONB: Encoded in vim by Marcin Konik
!!!CharacterEncoding: utf-8
!!!RDF**kern: l=long note in original notation
!!!RDF**kern: i=editorial accidental
!!muse2ps: z14jc180F
!!!COM: Anonim
!!!CDT: [?]
!!!TXO: Polish
!!!ODT: 
!!!GTL: Hymnbook D
!!!ARL: Opactwo św. Wojciecha, Staniątki 
!!!voices:	1
